icons/lock-taichi.svg

<svg width="20" height="22" viewBox="0 0 20 22" fill="none" xmlns="http://www.w3.org/2000/svg">
<path d="M10.1592 0.00219345C13.1903 0.0847513 16.0913 2.47485 16.0117 6.65747L16.0049 7.00708C18.2117 7.00971 19.9999 8.79968 20 11.0071V18.0071C20 20.1471 18.3194 21.895 16.2061 22.0022L16 22.0071H9.95801C9.94471 22.0075 9.93137 22.0072 9.91797 22.0071H4L3.79395 22.0022C1.74881 21.8984 0.108652 20.2583 0.00488281 18.2131L0 18.0071V11.0071C0.000130134 8.79805 1.79094 7.00708 4 7.00708H4.00293L4.01172 6.6145C4.06264 4.44686 4.80199 2.75827 5.97363 1.6184C7.13781 0.485902 8.6623 -0.0384786 10.1592 0.00219345ZM4 9.00708C2.89551 9.00708 2.00013 9.90262 2 11.0071V18.0071C2 19.1116 2.89543 20.0071 4 20.0071H5.87012C5.3993 19.3709 5.13476 18.6252 5.11719 17.8303C5.0696 15.6595 6.86623 13.8369 9.82129 13.5159C11.1759 13.3687 11.9493 12.9373 12.3564 12.5051C12.7515 12.0855 12.8796 11.5849 12.8076 11.0842C12.6571 10.0404 11.6012 8.93827 9.97363 9.01196C9.92702 9.01404 9.88113 9.01126 9.83594 9.00708H4ZM14.0703 9.00708C14.4467 9.54763 14.6961 10.1609 14.7881 10.8C14.9412 11.8652 14.6505 12.985 13.8125 13.8752C12.9863 14.7527 11.7116 15.3223 10.0371 15.5041C7.77861 15.7495 7.09807 16.9589 7.11621 17.7864C7.13525 18.6394 7.89881 19.8123 9.98438 20.0071H16C17.1046 20.0071 18 19.1116 18 18.0071V11.0071C17.9999 9.90262 17.1045 9.00708 16 9.00708H14.0703ZM10 17.0071C10.5522 17.0071 10.9999 17.4549 11 18.0071C11 18.5594 10.5523 19.0071 10 19.0071C9.44772 19.0071 9 18.5594 9 18.0071C9.00013 17.4549 9.4478 17.0071 10 17.0071ZM10 10.0071C10.5522 10.0071 10.9999 10.4549 11 11.0071C11 11.5594 10.5523 12.0071 10 12.0071C9.44772 12.0071 9 11.5594 9 11.0071C9.00013 10.4549 9.4478 10.0071 10 10.0071ZM10.1045 2.00219C9.10714 1.97518 8.11756 2.32299 7.36816 3.052C6.62629 3.7738 6.05226 4.93637 6.01172 6.66137L6.00391 7.00708H14.0049L14.0127 6.61938C14.0709 3.55901 12.0622 2.05555 10.1045 2.00219Z" fill="black"/>
</svg>

<svg
  xmlns="http://www.w3.org/2000/svg"
  width="20"
  height="22"
  viewBox="0 0 24 24"
  fill="none"
  stroke="currentColor"
  stroke-width="2"
  stroke-linecap="round"
  stroke-linejoin="round"
>
  <path d="M10.16.002c3.03.083 5.931 2.473 5.852 6.655l-.007.35a4 4 0 0 1 3.995 4v7a4 4 0 0 1-3.794 3.995l-.206.005H4l-.206-.005a4 4 0 0 1-3.79-3.789L0 18.007v-7a4 4 0 0 1 4-4h.003l.009-.393c.05-2.167.79-3.856 1.962-4.996A5.75 5.75 0 0 1 10.159.002M4 9.007a2 2 0 0 0-2 2v7a2 2 0 0 0 2 2h1.87a3.77 3.77 0 0 1-.753-2.177c-.047-2.17 1.75-3.993 4.704-4.314 1.355-.147 2.128-.579 2.535-1.01.396-.42.524-.921.452-1.422-.15-1.044-1.207-2.146-2.834-2.072q-.07.003-.138-.005zm10.07 0c.377.54.626 1.154.718 1.793a3.66 3.66 0 0 1-.976 3.075c-.826.878-2.1 1.447-3.775 1.63-2.258.244-2.939 1.454-2.92 2.281.018.853.782 2.026 2.867 2.221H16a2 2 0 0 0 2-2v-7a2 2 0 0 0-2-2zm-4.07 8a1 1 0 1 1 0 2 1 1 0 0 1 0-2m0-7a1 1 0 1 1 0 2 1 1 0 0 1 0-2m.104-8.005a3.75 3.75 0 0 0-2.736 1.05c-.742.722-1.316 1.884-1.356 3.61l-.008.345h8l.009-.388c.058-3.06-1.95-4.563-3.908-4.617" />
</svg>
